X:1
T: Clean Pease Strae
C:
R:Reel
Q: 232
K:D
M:4/4
L:1/8
|:A2|d2 f2 ge fd|eA AB =c2 BA|de fd ge fd|eg fe d2 A2|
d2 f2 ge fd|eA AB =c2 BA|de fd ge fd|eg fe d2 fg|
af df af df|eA AB =c2 fg|af df af df|eg fe de fg|
af df af df|eA AB =c2 fg|af ge fd ec|Ag fe dc BA:|
